X:1
T: The Helston Furry Dance
N:
C:
S:
A:
O:
R:
M:4/4
K:D
I:speed 200
%W:
% voice 1 (1 lines, 18 notes)
K:D
M:4/4
L:1/16
D4 D4 D4 F2 G2 |A4 A4 A4 B2 c2 |d4 A4 A2 B2 A2 G2 |F8 D8 |
%W:
% voice 1 (1 lines, 18 notes)
D4 D4 D4 F2 G2 |A4 A4 A4 B2 c2 |d4 A4 A2 B2 A2 G2 |F8 D8 |
%W:
% voice 1 (1 lines, 20 notes)
B4 B4 B4 A2 G2 |F2 E2 F2 G2 A4 B2 c2 |d4 A4 A2 B2 A2 G2 |F8 D8 |
%W:
% voice 1 (1 lines, 20 notes)
B4 B4 B4 A2 G2 |F2 E2 F2 G2 A4 B2 c2 |d4 A4 A2 B2 A2 G2 |F8 D8 ||
